X: 64
T: The Morpeth Rant v.2
P: piffero secondo a0764
O: fifers delight
%R: reel
F: http://ancients.sudburymuster.org/mus/sng/pdf/morpethC0.pdf
Z: 2020 John Chambers <jc:trillian.mit.edu>
M: 2/4
L: 1/16
K: D
A2 |\
A2FE DDEF | GFGB A2 (3ABc | d2dA BAGF | E2AB AGFG |\
A2FE DDEF |
GFGB A2 (3ABc | d2dA BAGF | E2A2 F2 :: A2 |\
FADA FADA | BAGA B2GA |
BAGF EFGB | AGAB A3G |\
FADA FADA | BAGA B2GA | BAGF EdcB | A2F2 F2 :|


